X:38244300194648
T:10-12-5-6-10-6-5-6-7-5-7-2-4-3-3-9
%%setfont-1 Courier-Bold 8
T:$1K.516f::98:130:113:45:75:97:159:107:138:176:150:9:73:18:116:111::$0
T:$1Perm. No.: 38244300194648$0
M:3/8
L:1/8
Q:1/8=111
%%staves [1 2]
V:1 clef=treble
V:2 clef=bass
K:C
%1
[V:1]|: cGe |\
[V:2]|: [E,/C,/]G,/[E,/C,/]G,/[E,/C,/]G,/ |\
%2
[V:1] [cE][cE][cE] |\
[V:2] C,C,C,   |\
%3
[V:1] fdB |\
[V:2] [B,2G,2]z |\
%4
[V:1] c/B/c/G/E/C/ |\
[V:2] [G,2E,2]z |\
%5
[V:1] [^fd][fd][fd] |\
[V:2] C,C,C,   |\
%6
[V:1] g/^f/g/d/B/G/ |\
[V:2] [D,2B,,2][G,B,,] |\
%7
[V:1] e/g/d/c/B/A/ \
[V:2] C,D,D,, \
%8a
[V:1]|1 [g2d2B2G2]z :|2
[V:2]|1 G,,G,/=F,/E,/D,/ :|2
%8b
[V:1] [g2d2B2G2]z |:\
[V:2] G,,B,/G,/^F,/E,/ |:\
%9
[V:1] [^fdA]!trill!f2 |\
[V:2] D,,/D,/^C,/D,/^C,/D,/ |\
%10
[V:1] a/g/b/g/d/g/ |\
[V:2] [D,2B,,2][D,B,,] |\
%11
[V:1] [ecG]!trill!e2 |\
[V:2] C,/B,,/C,/D,/E,/^F,/ |\
%12
[V:1] [ec][dB]z |\
[V:2] G,2G,, |\
%13
[V:1] gec |\
[V:2] [E,/C,/]G,/[E,/C,/]G,/[E,/C,/]G,/ |\
%14
[V:1] (Gce) |\
[V:2] [E,2C,2][G,C,] |\
%15
[V:1] d/f/a/f/d/B/ |\
[V:2] F,2G, |\
%16
[V:1] c2z :|]
[V:2] C,G,,C,, :|]
